X:1
T:E minor           Daniel Belknap, 1806
T:Isaac Watts, 1719 (Psalm 102, Part 3)               88. 88. (L. M.)
T:Mortality
T:Treble-Tenor-Bass transcribed from The Village Compilation , 1806 ; Counter by B. C. Johnston, 2017.
%%score [ 1 2 3 4 ]
L:1/8
Q:1/4=100
M:4/4
K:G
V:1 treble nm="Tr." snm="Tr."
V:2 treble nm="C." snm="C."
V:3 treble-8 nm="T." snm="T."
V:4 bass nm="B." snm="B."
V:1
"^1.  It is the Lord our Maker's hand  Weakens our strength amidst the race;  Disease  and  death  at  his  command   Arrest  us,  and  cut short our days,   Ar–rest  us,   and    cut     short  our  days.\n2.  Spare us, O Lord, aloud we pray,  Nor let our sun go down at noon;     Thy years are one  e   –  ter   –  nal   day,    And must thy children die so soon?  And  must  thy  chil –dren  die   so    soon?" B4 G2 B2 | %1
 d8 | A4 G2 B2 | c8 | g4 g2 e2 | e3 e d2 B2 | d8 | ^d4 e2 e2 | B2 B2 BA GA | B6 B2 | A2 A2 A2 B2 | %11
 G4 A4 | B6 ^d2 | e2 ef g2 ge | B4 [B^d]4 | [Be]8 |] %16
V:2
"^3.  Yet in the midst of death and grief  This thought our sorrow should assuage:  Our  Father  and  our Savior live;  Christ is the same through every age,  Christ is  the  same through eve– ry  age.\n4.  Twas he this earth's foundation laid;  Heav'n is the building of his hand;  This earth grows old, these heav'ns shall fade  And all be changed at his command, And all be changed at his command." E4 G2 B2 | %1
 A8 | d4 B2 B2 | A8 | G4 G2 G2 | c3 B A2 B2 | A8 | B4 B2 B2 | BA GF EF GA | B6 G2 | A2 A2 A2 BA | %11
 G4 A4 | B6 B2 | G2 E2 GA BA | G4 B4 | B8 |] %16
V:3
"^5.  The  starry  cur–tains  of  the   sky,  Like garments, shall be laid aside;  But  still thy throne stands firm  on high,  Thy   church  for  ever  must  abide,    Thy   church  for  ev–er   must  a  – bide.\n6.  Before thy face thy church shall live,  And on thy throne thy children reign;  This dying world shall they survive,  And the dead saints be raised again,  And  the  dead  saints  be  raised  a–gain." B4 B2 G2 | %1
 A8 | d4 B2 ^d2 | e8 | B4 B2 B2 | c3 B A2 G2 | A8 | B4 B2 B2 | B2 B2 ed eg | f6 B2 | d2 d2 d2 de | %11
 d4 c4 | B6 B2 | G2 e2 d2 BA | G4 F4 | E8 |] %16
V:4
 E,4 G,2 E,2 | D,8 | D,4 E,2 B,,2 | A,,8 | G,4 E,2 G,2 | A,3 G, F,2 E,2 | D,8 | B,,4 E,2 E,2 | %8
 E,F, G,F, E,2 E,2 | B,6 G,2 | D,2 D,2 D,2 B,,2 | G,4 F,4 | B,,6 B,,2 | E,2 G,2 G,2 G,A, | %14
 B,4 B,,4 | E,8 |] %16

